X: 812
T: Well-hall
P: Longways for as many as will
%R: minuet
B: "The Dancing-Master: Containing Directions and Tunes for Dancing" printed by W. Pearson for John Walsh, London ca. 1709
S: 7: DMDfD http://digital.nls.uk/special-collections-of-printed-music/pageturner.cfm?id=89751228 p.98
Z: 2013 John Chambers <jc:trillian.mit.edu>
M: 3/2
L: 1/4
K: F
% - - - - - - - - - - - - - - - - - - - - - - - - -
[|\
(Ac) (dc) (fA) | G2 E2 B2 | (Ac) (dc) fg | a4 g2 | (ag) (fc) (df) | d2 F2 A2 | (GA) (Bc) A2 | B3 c B2 |][| (BF) (GF) (GB) |
D3 B D2 | (EG) (AG) (Ac) | E3 c B2 | (Ac) (dc) (fc) | d3 (e/f/) (gd) | (ec) (Aa) de | f3 g f2 |]
% - - - - - - - - - - - - - - - - - - - - - - - - -
%%begintext align
%% Honour to the Presence, then to your we. | Lead up all forward and back, that again.
%%endtext
%%sep 1 1 300
%%begintext align
%% The 1. man turns his own wo. once and a half, then goes into the 2. place and cross over, and the
%% 2. man and wo. being in the 1. place does the same, then the 1. man and 2. wo. change places, and
%% the 1. wo. and 2. man do the same, then hands all together and go half round into your own places
%% and turn S. then the 1. wo. and the 2. man cross ovar [sic], and the 1. man and 2. wo. do the same, then all
%% take hands and go half round into their own places, then the 1. cu. cast off into the 2. place; and so
%% on to the end.
%% [DMDfD]
%%endtext
%%sep 1 8 500

%%sep 1 1 500
%%sep 1 1 500
